X: 1
T:THE KILT IS MY DELIGHT
M:C|
L:1/8
Q:80
C:Traditional
S:Reel
K:HP
|: e|
{g}A3/2{d}A/2{e}A3/2B/2{g}A3/2B/2d3/2f/2|
{g}e2{GdG}ef{g}d3/2B/2{G}Be|
{g}A3/2{d}A/2{e}A3/2B/2{g}A3/2B/2d3/2f/2|  !
{g}e2{GdG}ef{Gdc}d2{gdc}d:| [|
e|
{gf}g2ag{fg}f2af|
{g}e2{GdG}ef{g}d3/2B/2{G}Be|  !
{gf}g2ag{fg}f2af|
{g}e2{GdG}ef{Gdc}d2{gdc}d|
e|  !
{gf}g2ag{fg}f2af|
{g}e2{GdG}ef{g}d3/2B/2{G}Be|
{g}A3/2{d}A/2{e}A3/2B/2{g}A3/2B/2d3/2f/2|  !
{g}e2{GdG}ef{Gdc}d2{gdc}d|]
